X: 1
T: Bill Harte's
M: 6/8
L: 1/8
R: jig
K: Dmix
DED A2A|BAG ABA|DED A2A|BAG EGE|
DED A2A|BAG ABc|d2B cBA|1 BAG EGE:|2 BAG E2D||
|:d2B cBA|BAG ABc|d2B cBA|BAG E2D|
dcB cBA|BAG ABc|ded c2A|1 BAG E2D:|2 BAG EGE||
